app/resources/img/keyhole.svg

<?xml version="1.0" encoding="utf-8"?>
<!-- Generator: Adobe Illustrator 22.1.0, SVG Export Plug-In . SVG Version: 6.00 Build 0)  -->
<svg version="1.1" id="Capa_1" xmlns="http://www.w3.org/2000/svg" xmlns:xlink="http://www.w3.org/1999/xlink" x="0px" y="0px"
	 viewBox="0 0 60 60" style="enable-background:new 0 0 60 60;" xml:space="preserve">
<style type="text/css">
	.st0{fill:#FFFFFF;}
</style>
<g>
	<path d="M39,22c0-5-4-9-9-9s-9,4-9,9c0,2.8,1.3,5.4,3.5,7.1L21.8,48h16.3l-2.7-18.9C37.7,27.4,39,24.8,39,22z M35.8,46H24.2
		l2.5-17.8l-0.5-0.3c-2-1.3-3.2-3.5-3.2-5.8c0-3.9,3.1-7,7-7s7,3.1,7,7c0,2.4-1.2,4.5-3.2,5.8l-0.5,0.3L35.8,46z"/>
	<path d="M30,0C13.5,0,0,13.5,0,30s13.5,30,30,30s30-13.5,30-30S46.5,0,30,0z M30,58C14.6,58,2,45.4,2,30S14.6,2,30,2s28,12.6,28,28
		S45.4,58,30,58z"/>
	<path class="st0" d="M30,2C14.6,2,2,14.6,2,30s12.6,28,28,28s28-12.6,28-28S45.4,2,30,2z M38.2,48H21.8l2.7-18.9
		C22.3,27.4,21,24.8,21,22c0-5,4-9,9-9s9,4,9,9c0,2.8-1.3,5.4-3.5,7.1L38.2,48z"/>
	<path class="st0" d="M33.3,28.2L35.8,46H24.2l2.5-17.8l-0.5-0.3c-2-1.3-3.2-3.5-3.2-5.8c0-3.9,3.1-7,7-7s7,3.1,7,7
		c0,2.4-1.2,4.5-3.2,5.8L33.3,28.2z"/>
</g>
</svg>

<?xml version="1.0" encoding="UTF-8" standalone="no"?>
<!DOCTYPE svg PUBLIC "-//W3C//DTD SVG 1.1//EN" "http://www.w3.org/Graphics/SVG/1.1/DTD/svg11.dtd">
<svg width="100%" height="100%" viewBox="0 0 60 60" version="1.1" xmlns="http://www.w3.org/2000/svg" xmlns:xlink="http://www.w3.org/1999/xlink" xml:space="preserve" xmlns:serif="http://www.serif.com/" style="fill-rule:evenodd;clip-rule:evenodd;stroke-linejoin:round;stroke-miterlimit:1.41421;">
    <g>
        <path d="M39,22C39,17 35,13 30,13C25,13 21,17 21,22C21,24.8 22.3,27.4 24.5,29.1L21.8,48L38.1,48L35.4,29.1C37.7,27.4 39,24.8 39,22ZM35.8,46L24.2,46L26.7,28.2L26.2,27.9C24.2,26.6 23,24.4 23,22.1C23,18.2 26.1,15.1 30,15.1C33.9,15.1 37,18.2 37,22.1C37,24.5 35.8,26.6 33.8,27.9L33.3,28.2L35.8,46Z" style="fill-rule:nonzero;"/>
        <path d="M30,0C13.5,0 0,13.5 0,30C0,46.5 13.5,60 30,60C46.5,60 60,46.5 60,30C60,13.5 46.5,0 30,0ZM30,58C14.6,58 2,45.4 2,30C2,14.6 14.6,2 30,2C45.4,2 58,14.6 58,30C58,45.4 45.4,58 30,58Z" style="fill-rule:nonzero;"/>
        <g transform="matrix(0.938462,0,0,0.952381,-0.0615385,0.952381)">
            <rect x="-1" y="-1" width="65" height="63"/>
        </g>
        <path d="M30,2C14.6,2 2,14.6 2,30C2,45.4 14.6,58 30,58C45.4,58 58,45.4 58,30C58,14.6 45.4,2 30,2ZM38.2,48L21.8,48L24.5,29.1C22.3,27.4 21,24.8 21,22C21,17 25,13 30,13C35,13 39,17 39,22C39,24.8 37.7,27.4 35.5,29.1L38.2,48Z" style="fill:white;fill-rule:nonzero;"/>
        <path d="M33.3,28.2L35.8,46L24.2,46L26.7,28.2L26.2,27.9C24.2,26.6 23,24.4 23,22.1C23,18.2 26.1,15.1 30,15.1C33.9,15.1 37,18.2 37,22.1C37,24.5 35.8,26.6 33.8,27.9L33.3,28.2Z" style="fill:white;fill-rule:nonzero;"/>
    </g>
</svg>
